X:29
T:The Devil's Dream - A Dance
S:John Moore's Book 2
Z:Transcribed by Taz Tarry 04/2021
%%VWML: Moore1-4494-p26-0
F:http://www.vwml.org/record/Moore2/4494/p26
M:C|
L:1/8
K:D
a3 (gf/e/) a3 (gf/e/)|a2gf e2 dc|dece dece|dece dcBA|
a3 (gf/e/) a3 (gf/e/)|a2gf e2 dc|fedc dcBA|EAGB A4:|
cece cece|cece gfed|dfBf dfBf|dfBf agfe|
cece ceAe|ceAe gfed|fedc dcBA|EAGc A4:|

